X: 2
T: Ballintore Fancy, The 
M: 12/8
L: 1/8
R: single jig
K: Gmaj
z |:\
G2 B B3 G2 B d2 B | G2 B B3 F2 G A2 D |
G2 B B3 G2 B d2 B | e2 c A2 G F2 G A2 D :|
|: B2 E E2 D B2 E G2 A | B2 E E2 D A2 D F2 A |
B2 E E2 D c2 A B2 G |[1 A2 G F2 G A2 D G2 A :|[2 A2 G F2 G A2 c B2 A ||
